docs/img/icon-rocket.svg

<svg width="33" height="33" viewBox="0 0 33 33" fill="none" xmlns="http://www.w3.org/2000/svg">
<path d="M26.1084 17.4853L25.3752 16.8053L26.1084 17.4853ZM15.4443 6.82127L16.1244 7.55446L15.4443 6.82127ZM31.1717 4.6111L32.1632 4.74078L31.1717 4.6111ZM28.3185 1.75795L28.4482 2.74951L28.3185 1.75795ZM8.29872 17.2465L9.19663 17.6867L8.29872 17.2465ZM15.6831 24.6309L15.2429 23.733L15.6831 24.6309ZM10.8195 13.5789C10.429 13.1884 9.79581 13.1884 9.40529 13.5789C9.01476 13.9694 9.01476 14.6026 9.40529 14.9931L10.8195 13.5789ZM17.9365 23.5243C18.327 23.9148 18.9602 23.9148 19.3507 23.5243C19.7412 23.1338 19.7412 22.5006 19.3507 22.1101L17.9365 23.5243ZM8.1535 26.1903C8.54402 25.7998 8.54402 25.1666 8.1535 24.7761C7.76298 24.3856 7.12981 24.3856 6.73928 24.7761L8.1535 26.1903ZM2.47368 29.0417C2.08316 29.4322 2.08316 30.0654 2.47368 30.4559C2.86421 30.8465 3.49737 30.8465 3.88789 30.4559L2.47368 29.0417ZM4.9543 22.9911C5.34482 22.6006 5.34482 21.9674 4.9543 21.5769C4.56377 21.1864 3.93061 21.1864 3.54008 21.5769L4.9543 22.9911ZM1.40728 23.7097C1.01676 24.1002 1.01676 24.7334 1.40728 25.1239C1.79781 25.5145 2.43097 25.5144 2.82149 25.1239L1.40728 23.7097ZM11.3527 29.3895C11.7432 28.999 11.7432 28.3658 11.3527 27.9753C10.9622 27.5848 10.329 27.5848 9.93848 27.9753L11.3527 29.3895ZM7.80569 30.1081C7.41516 30.4986 7.41516 31.1318 7.80569 31.5223C8.19621 31.9129 8.82938 31.9129 9.2199 31.5223L7.80569 30.1081ZM14.4846 29.9621L15.4746 29.8207L14.4846 29.9621ZM22.2694 24.7367L23.2593 24.5953L22.2694 24.7367ZM2.96748 18.445L3.1089 17.4551L3.1089 17.4551L2.96748 18.445ZM8.19284 10.6603L8.05142 11.6502L8.05142 11.6502L8.19284 10.6603ZM13.1163 23.3406L9.58901 19.8133L8.1748 21.2275L11.7021 24.7548L13.1163 23.3406ZM25.3752 16.8053C22.5016 19.9036 17.8453 22.4572 15.2429 23.733L16.1233 25.5288C18.7464 24.2428 23.6973 21.5554 26.8416 18.1653L25.3752 16.8053ZM9.19663 17.6867C10.4725 15.0843 13.0261 10.428 16.1244 7.55446L14.7643 6.08807C11.3742 9.23232 8.68679 14.1833 7.40082 16.8064L9.19663 17.6867ZM30.1801 4.48142C29.7214 7.98842 28.5004 13.4356 25.3752 16.8053L26.8416 18.1653C30.4243 14.3024 31.6983 8.29532 32.1632 4.74078L30.1801 4.48142ZM16.1244 7.55446C19.494 4.42919 24.9412 3.20818 28.4482 2.74951L28.1888 0.766397C24.6343 1.23129 18.6272 2.50535 14.7643 6.08807L16.1244 7.55446ZM32.1632 4.74078C32.4704 2.39224 30.5374 0.459239 28.1888 0.766397L28.4482 2.74951C29.4942 2.61271 30.3169 3.43543 30.1801 4.48142L32.1632 4.74078ZM9.58901 19.8133C9.00419 19.2285 8.85625 18.381 9.19663 17.6867L7.40082 16.8064C6.66061 18.3162 7.02382 20.0766 8.1748 21.2275L9.58901 19.8133ZM11.7021 24.7548C12.853 25.9058 14.6134 26.269 16.1233 25.5288L15.2429 23.733C14.5486 24.0734 13.7011 23.9254 13.1163 23.3406L11.7021 24.7548ZM9.40529 14.9931L17.9365 23.5243L19.3507 22.1101L10.8195 13.5789L9.40529 14.9931ZM6.73928 24.7761L2.47368 29.0417L3.88789 30.4559L8.1535 26.1903L6.73928 24.7761ZM3.54008 21.5769L1.40728 23.7097L2.82149 25.1239L4.9543 22.9911L3.54008 21.5769ZM9.93848 27.9753L7.80569 30.1081L9.2199 31.5223L11.3527 29.3895L9.93848 27.9753ZM18.4697 8.7801C16.9013 10.3485 16.9013 12.8915 18.4697 14.4599L19.8839 13.0457C19.0965 12.2583 19.0965 10.9817 19.8839 10.1943L18.4697 8.7801ZM18.4697 14.4599C20.0381 16.0284 22.5811 16.0284 24.1495 14.4599L22.7353 13.0457C21.9479 13.8331 20.6713 13.8331 19.8839 13.0457L18.4697 14.4599ZM24.1495 14.4599C25.718 12.8915 25.718 10.3485 24.1495 8.7801L22.7353 10.1943C23.5227 10.9817 23.5227 12.2583 22.7353 13.0457L24.1495 14.4599ZM24.1495 8.7801C22.5811 7.21166 20.0381 7.21166 18.4697 8.7801L19.8839 10.1943C20.6713 9.40692 21.9479 9.40692 22.7353 10.1943L24.1495 8.7801ZM21.1357 25.3093L16.3369 30.1081L17.7511 31.5223L22.5499 26.7235L21.1357 25.3093ZM15.4746 29.8207L14.8347 25.3418L12.8548 25.6246L13.4947 30.1035L15.4746 29.8207ZM20.8529 21.8922L21.2794 24.8782L23.2593 24.5953L22.8328 21.6094L20.8529 21.8922ZM16.3369 30.1081C16.0408 30.4042 15.5338 30.2352 15.4746 29.8207L13.4947 30.1035C13.787 32.1496 16.2897 32.9838 17.7511 31.5223L16.3369 30.1081ZM22.5499 26.7235C23.1081 26.1653 23.371 25.3768 23.2593 24.5953L21.2794 24.8782C21.302 25.0365 21.2488 25.1962 21.1357 25.3093L22.5499 26.7235ZM6.20605 10.3797L1.40725 15.1785L2.82146 16.5928L7.62027 11.7939L6.20605 10.3797ZM2.82606 19.435L7.30494 20.0748L7.58778 18.0949L3.1089 17.4551L2.82606 19.435ZM11.3202 10.0969L8.33426 9.67033L8.05142 11.6502L11.0373 12.0768L11.3202 10.0969ZM1.40725 15.1785C-0.054203 16.64 0.780024 19.1427 2.82606 19.435L3.1089 17.4551C2.69439 17.3958 2.52539 16.8888 2.82146 16.5928L1.40725 15.1785ZM7.62027 11.7939C7.73336 11.6809 7.89309 11.6276 8.05142 11.6502L8.33426 9.67033C7.55275 9.55869 6.76428 9.82151 6.20605 10.3797L7.62027 11.7939Z" fill="white"/>
</svg>

<svg xmlns="http://www.w3.org/2000/svg" width="33" height="33" fill="none"><path fill="#fff" d="m26.108 17.485-.733-.68zM15.444 6.821l.68.733zm15.728-2.21.991.13zm-2.854-2.853.13.992zM8.299 17.247l.899.44zm7.385 7.384-.44-.898zM10.82 13.579a1 1 0 0 0-1.415 1.414zm7.116 9.945a1 1 0 0 0 1.415-1.414zM8.154 26.19a1 1 0 1 0-1.415-1.414zm-5.68 2.852a1 1 0 1 0 1.414 1.414zm2.48-6.05a1 1 0 1 0-1.414-1.415zm-3.547.718a1 1 0 1 0 1.414 1.414zm9.946 5.68a1 1 0 0 0-1.415-1.415zm-3.547.718a1 1 0 1 0 1.414 1.414zm6.679-.146.99-.141zm7.784-5.225.99-.142zM2.967 18.445l.142-.99zm5.226-7.785-.142.99zm4.923 12.68L9.59 19.814l-1.414 1.415 3.527 3.527zm12.26-6.535c-2.874 3.099-7.53 5.652-10.133 6.928l.88 1.796c2.623-1.286 7.574-3.974 10.719-7.364zm-16.18.882c1.277-2.603 3.83-7.259 6.928-10.133l-1.36-1.466c-3.39 3.144-6.077 8.095-7.363 10.718zM30.18 4.48c-.459 3.507-1.68 8.955-4.805 12.324l1.467 1.36c3.582-3.863 4.856-9.87 5.321-13.424zM16.124 7.554c3.37-3.125 8.817-4.346 12.324-4.804l-.26-1.984c-3.554.465-9.56 1.74-13.424 5.322zm16.04-2.813A3.508 3.508 0 0 0 28.188.766l.26 1.984c1.045-.137 1.868.685 1.731 1.731zM9.588 19.813c-.585-.584-.733-1.432-.392-2.126l-1.796-.88c-.74 1.51-.377 3.27.774 4.42zm2.113 4.942c1.151 1.15 2.911 1.514 4.421.774l-.88-1.796c-.694.34-1.542.192-2.127-.392zm-2.297-9.762 8.532 8.531 1.414-1.414-8.531-8.531zM6.74 24.776l-4.265 4.266 1.414 1.414 4.265-4.266zm-3.199-3.2L1.407 23.71l1.414 1.414 2.133-2.133zm6.398 6.4-2.132 2.132 1.414 1.414 2.133-2.132zM18.47 8.78a4.016 4.016 0 0 0 0 5.68l1.414-1.414a2.016 2.016 0 0 1 0-2.852zm0 5.68a4.016 4.016 0 0 0 5.68 0l-1.415-1.414a2.016 2.016 0 0 1-2.851 0zm5.68 0a4.016 4.016 0 0 0 0-5.68l-1.415 1.414a2.016 2.016 0 0 1 0 2.852zm0-5.68a4.016 4.016 0 0 0-5.68 0l1.414 1.414a2.016 2.016 0 0 1 2.851 0zm-3.014 16.53-4.8 4.798 1.415 1.414 4.799-4.798zm-5.661 4.51-.64-4.478-1.98.283.64 4.479zm5.378-7.928.426 2.986 1.98-.283-.426-2.986zm-4.516 8.216a.508.508 0 0 1-.862-.287l-1.98.282c.292 2.047 2.795 2.88 4.256 1.42zm6.213-3.384a2.5 2.5 0 0 0 .71-2.129l-1.98.283a.5.5 0 0 1-.144.431zM6.206 10.38l-4.799 4.798 1.414 1.415 4.8-4.8zm-3.38 9.055 4.479.64.283-1.98-4.48-.64zm8.494-9.338L8.334 9.67l-.283 1.98 2.986.427zm-9.913 5.082c-1.461 1.461-.627 3.964 1.42 4.256l.282-1.98a.508.508 0 0 1-.288-.862zm6.213-3.385a.5.5 0 0 1 .431-.144l.283-1.98a2.5 2.5 0 0 0-2.128.71z"/></svg>
